src/assets/skills/apple-developer.svg

<svg height="100pt" viewBox="0 0 100 100" width="100pt" xmlns="http://www.w3.org/2000/svg"><g fill="#999"><path d="m0 0h100v100h-100z" fill-opacity=".5"/><path d="m35.672 82.653c-1.38-.92-2.604-2.048-3.627-3.351-1.118-1.349-2.152-2.771-3.103-4.24-2.232-3.264-3.979-6.836-5.188-10.599-1.458-4.379-2.167-8.571-2.167-12.672 0-4.576.991-8.571 2.921-11.922 1.428-2.624 3.558-4.819 6.122-6.36 2.477-1.546 5.363-2.39 8.28-2.449 1.021 0 2.127.146 3.295.437.846.234 1.865.612 3.12 1.078 1.602.612 2.477.991 2.77 1.078.933.35 1.72.496 2.332.496.466 0 1.137-.146 1.881-.378.422-.146 1.224-.409 2.361-.903 1.126-.409 2.018-.759 2.726-1.021 1.078-.321 2.123-.612 3.061-.759 1.137-.174 2.265-.234 3.347-.146 2.071.146 3.964.584 5.657 1.224 2.973 1.196 5.371 3.061 7.162 5.713-.759.466-1.458 1.008-2.114 1.603-1.419 1.253-2.624 2.739-3.586 4.388-1.253 2.245-1.895 4.781-1.878 7.346.044 3.157.846 5.931 2.449 8.336 1.128 1.749 2.634 3.247 4.471 4.478.903.612 1.696 1.034 2.449 1.312-.35 1.093-.735 2.158-1.181 3.207-1.012 2.353-2.215 4.607-3.645 6.734-1.259 1.837-2.249 3.207-3.002 4.11-1.171 1.4-2.302 2.449-3.439 3.199-1.252.831-2.726 1.27-4.232 1.27-1.021.044-2.04-.087-3.015-.369-.846-.278-1.679-.588-2.495-.943-.855-.391-1.738-.723-2.639-.99-1.108-.291-2.245-.431-3.393-.428-1.165 0-2.302.146-3.382.421-.903.256-1.778.571-2.644.947-1.224.51-2.026.846-2.492.991-.945.279-1.913.448-2.886.509-1.515 0-2.928-.437-4.294-1.349zm19.981-53.812c-1.983.99-3.866 1.41-5.752 1.27-.291-1.882 0-3.819.787-5.938.699-1.808 1.633-3.439 2.914-4.897 1.34-1.515 2.945-2.77 4.751-3.673 1.924-.991 3.76-1.516 5.509-1.603.234 1.983 0 3.935-.728 6.034-.664 1.865-1.655 3.586-2.914 5.132-1.268 1.515-2.842 2.77-4.567 3.675z"/></g></svg>

<?xml version="1.0" encoding="UTF-8" standalone="no"?><!-- Generator: Gravit.io --><svg xmlns="http://www.w3.org/2000/svg" xmlns:xlink="http://www.w3.org/1999/xlink" style="isolation:isolate" viewBox="0 0 100 100" width="100pt" height="100pt"><rect x="0" y="0" width="100" height="100" transform="matrix(1,0,0,1,0,0)" fill="rgb(153,153,153)" fill-opacity="0.5"/><path d=" M 35.672 82.653 C 34.292 81.733 33.068 80.605 32.045 79.302 C 30.927 77.953 29.893 76.531 28.942 75.062 C 26.71 71.798 24.963 68.226 23.754 64.463 C 22.296 60.084 21.587 55.892 21.587 51.791 C 21.587 47.215 22.578 43.22 24.508 39.869 C 25.936 37.245 28.066 35.05 30.63 33.509 C 33.107 31.963 35.993 31.119 38.91 31.06 C 39.931 31.06 41.037 31.206 42.205 31.497 C 43.051 31.731 44.07 32.109 45.325 32.575 C 46.927 33.187 47.802 33.566 48.095 33.653 C 49.028 34.003 49.815 34.149 50.427 34.149 C 50.893 34.149 51.564 34.003 52.308 33.771 C 52.73 33.625 53.532 33.362 54.669 32.868 C 55.795 32.459 56.687 32.109 57.395 31.847 C 58.473 31.526 59.518 31.235 60.456 31.088 C 61.593 30.914 62.721 30.854 63.803 30.942 C 65.874 31.088 67.767 31.526 69.46 32.166 C 72.433 33.362 74.831 35.227 76.622 37.879 C 75.863 38.345 75.164 38.887 74.508 39.482 C 73.089 40.735 71.884 42.221 70.922 43.87 C 69.669 46.115 69.027 48.651 69.044 51.216 C 69.088 54.373 69.89 57.147 71.493 59.552 C 72.621 61.301 74.127 62.799 75.964 64.03 C 76.867 64.642 77.66 65.064 78.413 65.342 C 78.063 66.435 77.678 67.5 77.232 68.549 C 76.22 70.902 75.017 73.156 73.587 75.283 C 72.328 77.12 71.338 78.49 70.585 79.393 C 69.414 80.793 68.283 81.842 67.146 82.592 C 65.894 83.423 64.42 83.862 62.914 83.862 C 61.893 83.906 60.874 83.775 59.899 83.493 C 59.053 83.215 58.22 82.905 57.404 82.55 C 56.549 82.159 55.666 81.827 54.765 81.56 C 53.657 81.269 52.52 81.129 51.372 81.132 C 50.207 81.132 49.07 81.278 47.99 81.553 C 47.087 81.809 46.212 82.124 45.346 82.5 C 44.122 83.01 43.32 83.346 42.854 83.491 C 41.909 83.77 40.941 83.939 39.968 84 C 38.453 84 37.04 83.563 35.674 82.651 L 35.672 82.653 Z  M 55.653 28.841 C 53.67 29.831 51.787 30.251 49.901 30.111 C 49.61 28.229 49.901 26.292 50.688 24.173 C 51.387 22.365 52.321 20.734 53.602 19.276 C 54.942 17.761 56.547 16.506 58.353 15.603 C 60.277 14.612 62.113 14.087 63.862 14 C 64.096 15.983 63.862 17.935 63.134 20.034 C 62.47 21.899 61.479 23.62 60.22 25.166 C 58.952 26.681 57.378 27.936 55.653 28.841 Z " fill="rgb(153,153,153)"/></svg>
